X:62
T:Dark Island
C:Trad
Q:1/4=100
I:abc2nwc
M:3/4
L:1/8
K:C
E2|:A3B A2|G3A G2|E3D C2|D4GA|
  |B3A G2|B d3DD|B3d B2|A3DE|
  |A3B A2|G3A G2|E3D C2|D4GA|
  |B3D dB|A3D BA|G4G2|G4Bc|
  |d3e d2|B3A G2|E3G E2|D4GA|
  |B3A G2|B d3B2|B4dB|A4DE|
  |A3B A2|G3A G2|E3D C2|D4GA|
  |B3D dB|A3D BA|G4G2|G6:|
